X: 30647
T: Ookpik
R: waltz
M: 3/4
K: Gmajor
(3DEF|G2 B3G|A2 F3D|E2 G3A|G2 B2 d2|e3d ef|e2d2 BG|B2 d3e|d2 B2 d2|
e3d ef|e2 d2 BA|B2 d2 BA|G2 E2 D2|{E}G3F GB|A3G ED|E (GG3)A|1 H G4:|2 G2 B2||
d2|e2 B3A|B2 g2 e2|d4 BA|Bd3 (3BAB|A3G AB|A2 G2 ED|E2 G2 E2|D2 B2 d2|
e2 B3A|B2 gf ef|d4 BA|Bd3 B2|A3G AB|A2 G2 ED|E2 G2 E2|D4||

